X: 13
T: Morning Has Broken v.2
P: piffero secondo a0146
O: Dan Moylan
%R: air, slip-jig
F: http://ancients.sudburymuster.org/mus/col/pdf/hymnsF.pdf
Z: 2020 John Chambers <jc:trillian.mit.edu>
M: 9/8
L: 1/8
K: D
|:\
FAF F3 G3 | ABc d3 c3 | FGA F3 G3 | FDF G6 |\
FAF F3 G3 | FAF F3 G3 | AGA F3 G3 | GAG F6 :|


